;FLAVOR:Marlin
;TIME:7920
;Filament used: 4.25855m
;Layer height: 0.2
;MINX:13.635
;MINY:1.5
;MINZ:0.2
;MAXX:294.365
;MAXY:281.365
;MAXZ:0.4
;Generated with Cura_SteamEngine master
M140 S62
M105
M190 S62
M104 S200
M105
M109 S200
M82 ;absolute extrusion mode
M201 X500.00 Y500.00 Z100.00 E5000.00 ;Setup machine max acceleration
M203 X500.00 Y500.00 Z10.00 E50.00 ;Setup machine max feedrate
M204 P500.00 R1000.00 T500.00 ;Setup Print/Retract/Travel acceleration
M205 X8.00 Y8.00 Z0.40 E5.00 ;Setup Jerk
M220 S100 ;Reset Feedrate
M221 S100 ;Reset Flowrate

G28 ;Home

G92 E0 ;Reset Extruder
G1 Z2.0 F3000 ;Move Z Axis up
G1 X10.1 Y20 Z0.28 F5000.0 ;Move to start position
G1 X10.1 Y200.0 Z0.28 F1500.0 E15 ;Draw the first line
G1 X10.4 Y200.0 Z0.28 F5000.0 ;Move to side a little
G1 X10.4 Y20 Z0.28 F1500.0 E30 ;Draw the second line
G92 E0 ;Reset Extruder
G1 Z2.0 F3000 ;Move Z Axis up

G92 E0
G92 E0
G1 F2700 E-5
;LAYER_COUNT:2
;LAYER:0
M107
;MESH:shelf_support_back.stl
G0 F6000 X276.424 Y275.588 Z0.2
;TYPE:WALL-INNER
G1 F2700 E0
G1 F900 X276.542 Y276.18 E0.02008
G1 X276.737 Y276.752 E0.04018
G1 X276.972 Y277.229 E0.05786
G1 X276.992 Y277.278 E0.05962
G1 X277.338 Y277.796 E0.08034
G1 X277.703 Y278.209 E0.09867
G1 X277.76 Y278.27 E0.10145
G1 X278.19 Y278.647 E0.12047
G1 X278.692 Y278.984 E0.14058
G1 X278.874 Y279.071 E0.14729
G1 X279.236 Y279.251 E0.16074
G1 X279.413 Y279.309 E0.16693
G1 X279.806 Y279.444 E0.18075
G1 X280.397 Y279.561 E0.20079
G1 X281.001 Y279.6 E0.22092
G1 X281.605 Y279.561 E0.24105
G1 X282.216 Y279.435 E0.2618
G1 X282.766 Y279.248 E0.28112
G1 X283.307 Y278.982 E0.30118
G1 X283.81 Y278.647 E0.32128
G1 X284.224 Y278.282 E0.33963
G1 X284.285 Y278.225 E0.34241
G1 X284.662 Y277.795 E0.36143
G1 X284.999 Y277.293 E0.38154
G1 X285.086 Y277.111 E0.38825
G1 X285.266 Y276.749 E0.4017
G1 X285.321 Y276.58 E0.40761
G1 X285.46 Y276.179 E0.42172
G1 X285.493 Y276.001 E0.42774
G1 X285.576 Y275.588 E0.44176
G1 X285.612 Y275.031 E0.46032
G1 X285.613 Y274.949 E0.46305
G1 X285.601 Y274.779 E0.46872
G1 X285.577 Y274.382 E0.48194
G1 X285.458 Y273.79 E0.50203
G1 X285.263 Y273.218 E0.52213
G1 X285.028 Y272.741 E0.53981
G1 X285.008 Y272.692 E0.54157
G1 X284.662 Y272.174 E0.56229
G1 X284.297 Y271.761 E0.58063
G1 X284.24 Y271.7 E0.5834
G1 X283.81 Y271.323 E0.60242
G1 X283.308 Y270.986 E0.62253
G1 X283.12 Y270.896 E0.62946
G1 X282.764 Y270.719 E0.64269
G1 X282.584 Y270.66 E0.64899
G1 X282.194 Y270.526 E0.6627
G1 X281.603 Y270.409 E0.68274
G1 X280.999 Y270.37 E0.70287
G1 X280.397 Y270.409 E0.72294
G1 X279.805 Y270.527 E0.74302
G1 X279.233 Y270.722 E0.76311
G1 X278.761 Y270.954 E0.78061
G1 X278.707 Y270.977 E0.78256
G1 X278.189 Y271.323 E0.80328
G1 X277.776 Y271.688 E0.82161
G1 X277.715 Y271.745 E0.82439
G1 X277.336 Y272.177 E0.8435
G1 X277.235 Y272.331 E0.84963
G1 X277.001 Y272.677 E0.86352
G1 X276.914 Y272.859 E0.87023
G1 X276.734 Y273.221 E0.88368
G1 X276.679 Y273.39 E0.88959
G1 X276.54 Y273.791 E0.9037
G1 X276.507 Y273.969 E0.90972
G1 X276.424 Y274.381 E0.9237
G1 X276.385 Y274.986 E0.94387
G1 X276.424 Y275.588 E0.96393
G0 F6000 X276.821 Y275.536
;TYPE:WALL-OUTER
G1 F900 X276.929 Y276.076 E0.98225
G1 X277.107 Y276.598 E1.00059
G1 X277.331 Y277.052 E1.01743
G1 X277.346 Y277.088 E1.01873
G1 X277.656 Y277.551 E1.03726
G1 X278 Y277.941 E1.05455
G1 X278.038 Y277.982 E1.05641
G1 X278.154 Y278.082 E1.06151
G1 X278.434 Y278.329 E1.07393
G1 X278.582 Y278.427 E1.07983
G1 X278.892 Y278.636 E1.09227
G1 X279.052 Y278.713 E1.09817
G1 X279.387 Y278.88 E1.11062
G1 X279.536 Y278.928 E1.11583
G1 X279.909 Y279.057 E1.12895
G1 X280.066 Y279.087 E1.13427
G1 X280.449 Y279.164 E1.14726
G1 X281.001 Y279.199 E1.16566
G1 X281.551 Y279.164 E1.18399
G1 X282.111 Y279.048 E1.20301
G1 X282.613 Y278.878 E1.22064
G1 X283.107 Y278.635 E1.23895
G1 X283.566 Y278.329 E1.2573
G1 X283.956 Y277.985 E1.2746
G1 X283.997 Y277.947 E1.27645
G1 X284.097 Y277.831 E1.28155
G1 X284.344 Y277.551 E1.29397
G1 X284.442 Y277.403 E1.29987
G1 X284.651 Y277.093 E1.31231
G1 X284.728 Y276.933 E1.31821
G1 X284.895 Y276.598 E1.33066
G1 X284.943 Y276.449 E1.33587
G1 X285.072 Y276.076 E1.34899
G1 X285.101 Y275.922 E1.35421
G1 X285.179 Y275.536 E1.3673
G1 X285.212 Y275.015 E1.38467
G1 X285.213 Y274.96 E1.3865
G1 X285.202 Y274.808 E1.39157
G1 X285.179 Y274.434 E1.40403
G1 X285.071 Y273.894 E1.42235
G1 X284.893 Y273.372 E1.44069
G1 X284.669 Y272.918 E1.45753
G1 X284.654 Y272.882 E1.45882
G1 X284.344 Y272.419 E1.47736
G1 X284 Y272.029 E1.49465
G1 X283.962 Y271.988 E1.49651
G1 X283.845 Y271.887 E1.50165
G1 X283.566 Y271.641 E1.51402
G1 X283.418 Y271.543 E1.51993
G1 X283.108 Y271.334 E1.53236
G1 X282.946 Y271.256 E1.53834
G1 X282.613 Y271.09 E1.55072
G1 X282.461 Y271.041 E1.55603
G1 X282.091 Y270.913 E1.56905
G1 X281.934 Y270.883 E1.57437
G1 X281.551 Y270.806 E1.58736
G1 X280.999 Y270.771 E1.60576
G1 X280.449 Y270.806 E1.62409
G1 X279.909 Y270.914 E1.64241
G1 X279.387 Y271.092 E1.66075
G1 X278.933 Y271.316 E1.67759
G1 X278.897 Y271.331 E1.67888
G1 X278.434 Y271.641 E1.69742
G1 X278.044 Y271.985 E1.71471
G1 X278.003 Y272.023 E1.71657
G1 X277.903 Y272.139 E1.72167
G1 X277.655 Y272.42 E1.73413
G1 X277.57 Y272.55 E1.7393
G1 X277.349 Y272.877 E1.75242
G1 X277.272 Y273.037 E1.75833
G1 X277.105 Y273.372 E1.77078
G1 X277.057 Y273.521 E1.77599
G1 X276.928 Y273.894 E1.78911
G1 X276.899 Y274.048 E1.79433
G1 X276.821 Y274.434 E1.80742
G1 X276.786 Y274.986 E1.82582
G1 X276.821 Y275.536 E1.84415
G0 F6000 X276.385 Y275.593
G1 F2700 E-3.15585
G0 F6000 X276.835 Y272.581
G0 X278.099 Y273.312
G0 X279.323 Y139.454
G0 X278.597 Y140.72
G0 X278.19 Y140.217
;TYPE:WALL-INNER
G1 F2700 E1.84415
G1 F900 X278.692 Y140.554 E1.86426
G1 X278.874 Y140.641 E1.87097
G1 X279.236 Y140.821 E1.88442
G1 X279.413 Y140.879 E1.89061
G1 X279.806 Y141.014 E1.90443
G1 X280.397 Y141.131 E1.92447
G1 X281.001 Y141.17 E1.9446
G1 X281.603 Y141.131 E1.96467
G1 X282.195 Y141.013 E1.98474
G1 X282.767 Y140.818 E2.00484
G1 X283.239 Y140.586 E2.02234
G1 X283.293 Y140.563 E2.02429
G1 X283.811 Y140.217 E2.04501
G1 X284.224 Y139.852 E2.06334
G1 X284.285 Y139.795 E2.06612
G1 X284.662 Y139.365 E2.08514
G1 X284.999 Y138.863 E2.10525
G1 X285.086 Y138.681 E2.11196
G1 X285.266 Y138.319 E2.1254
G1 X285.321 Y138.15 E2.13131
G1 X285.46 Y137.749 E2.14543
G1 X285.493 Y137.571 E2.15145
G1 X285.576 Y137.158 E2.16546
G1 X285.612 Y136.601 E2.18403
G1 X285.613 Y136.519 E2.18675
G1 X285.601 Y136.349 E2.19242
G1 X285.577 Y135.952 E2.20565
G1 X285.458 Y135.36 E2.22573
G1 X285.263 Y134.788 E2.24583
G1 X285.028 Y134.311 E2.26352
G1 X285.008 Y134.262 E2.26528
G1 X284.662 Y133.744 E2.286
G1 X284.297 Y133.331 E2.30433
G1 X284.24 Y133.27 E2.30711
G1 X283.81 Y132.893 E2.32613
G1 X283.307 Y132.556 E2.34627
G1 X283.137 Y132.474 E2.35254
G1 X282.764 Y132.289 E2.36639
G1 X282.584 Y132.231 E2.37268
G1 X282.213 Y132.102 E2.38575
G1 X282.035 Y132.068 E2.39177
G1 X281.606 Y131.979 E2.40634
G1 X280.999 Y131.94 E2.42658
G1 X280.397 Y131.979 E2.44664
G1 X279.805 Y132.097 E2.46672
G1 X279.233 Y132.292 E2.48682
G1 X278.761 Y132.524 E2.50431
G1 X278.707 Y132.547 E2.50626
G1 X278.189 Y132.893 E2.52698
G1 X277.776 Y133.258 E2.54531
G1 X277.715 Y133.315 E2.54809
G1 X277.338 Y133.745 E2.56711
G1 X277.001 Y134.247 E2.58722
G1 X276.914 Y134.429 E2.59393
G1 X276.734 Y134.791 E2.60738
G1 X276.679 Y134.96 E2.61329
G1 X276.54 Y135.361 E2.6274
G1 X276.507 Y135.539 E2.63342
G1 X276.424 Y135.951 E2.6474
G1 X276.385 Y136.556 E2.66757
G1 X276.424 Y137.158 E2.68763
G1 X276.542 Y137.75 E2.70771
G1 X276.737 Y138.322 E2.72781
G1 X276.972 Y138.799 E2.74549
G1 X276.992 Y138.848 E2.74725
G1 X277.327 Y139.347 E2.76724
G1 X277.703 Y139.78 E2.78632
G1 X277.762 Y139.842 E2.78917
G1 X278.19 Y140.217 E2.80809
G0 F6000 X278.434 Y139.899
;TYPE:WALL-OUTER
G1 F900 X278.582 Y139.997 E2.814
G1 X278.892 Y140.206 E2.82643
G1 X279.052 Y140.283 E2.83234
G1 X279.387 Y140.45 E2.84479
G1 X279.536 Y140.498 E2.84999
G1 X279.909 Y140.627 E2.86312
G1 X280.066 Y140.657 E2.86844
G1 X280.449 Y140.734 E2.88143
G1 X281.001 Y140.769 E2.89983
G1 X281.551 Y140.734 E2.91816
G1 X282.091 Y140.626 E2.93647
G1 X282.613 Y140.448 E2.95482
G1 X283.067 Y140.224 E2.97165
G1 X283.103 Y140.209 E2.97295
G1 X283.566 Y139.899 E2.99148
G1 X283.956 Y139.555 E3.00878
G1 X283.997 Y139.517 E3.01064
G1 X284.097 Y139.401 E3.01573
G1 X284.344 Y139.121 E3.02815
G1 X284.442 Y138.973 E3.03406
G1 X284.651 Y138.663 E3.04649
G1 X284.728 Y138.503 E3.0524
G1 X284.895 Y138.168 E3.06485
G1 X284.943 Y138.019 E3.07005
G1 X285.072 Y137.646 E3.08318
G1 X285.101 Y137.492 E3.08839
G1 X285.179 Y137.106 E3.10149
G1 X285.212 Y136.585 E3.11885
G1 X285.213 Y136.53 E3.12068
G1 X285.202 Y136.378 E3.12575
G1 X285.179 Y136.004 E3.13821
G1 X285.071 Y135.464 E3.15653
G1 X284.893 Y134.942 E3.17487
G1 X284.669 Y134.488 E3.19171
G1 X284.654 Y134.452 E3.19301
G1 X284.344 Y133.989 E3.21154
G1 X284 Y133.599 E3.22884
G1 X283.962 Y133.558 E3.2307
G1 X283.845 Y133.457 E3.23584
G1 X283.566 Y133.211 E3.24821
G1 X283.418 Y133.113 E3.25411
G1 X283.108 Y132.904 E3.26655
G1 X282.964 Y132.835 E3.27186
G1 X282.613 Y132.66 E3.2849
G1 X282.461 Y132.611 E3.29022
G1 X282.11 Y132.49 E3.30256
G1 X281.953 Y132.46 E3.30788
G1 X281.552 Y132.376 E3.32151
G1 X280.999 Y132.341 E3.33994
G1 X280.449 Y132.376 E3.35827
G1 X279.909 Y132.484 E3.37658
G1 X279.387 Y132.662 E3.39493
G1 X278.933 Y132.886 E3.41176
G1 X278.897 Y132.901 E3.41306
G1 X278.434 Y133.211 E3.43159
G1 X278.044 Y133.555 E3.44889
G1 X278.003 Y133.593 E3.45075
G1 X277.903 Y133.709 E3.45584
G1 X277.656 Y133.989 E3.46826
G1 X277.558 Y134.137 E3.47417
G1 X277.349 Y134.447 E3.4866
G1 X277.272 Y134.607 E3.49251
G1 X277.105 Y134.942 E3.50496
G1 X277.057 Y135.091 E3.51016
G1 X276.928 Y135.464 E3.52329
G1 X276.899 Y135.618 E3.5285
G1 X276.821 Y136.004 E3.5416
G1 X276.786 Y136.556 E3.56
G1 X276.821 Y137.106 E3.57833
G1 X276.929 Y137.646 E3.59664
G1 X277.107 Y138.168 E3.61499
G1 X277.331 Y138.622 E3.63182
G1 X277.346 Y138.658 E3.63312
G1 X277.645 Y139.103 E3.65095
G1 X277.999 Y139.511 E3.66892
G1 X278.038 Y139.552 E3.6708
G1 X278.154 Y139.652 E3.6759
G1 X278.434 Y139.899 E3.68831
G0 F6000 X278.167 Y140.248
G1 F2700 E-1.31169
G0 F6000 X277.11 Y138.715
G0 X276.697 Y137.708
G0 X276.583 Y137.137
G0 X276.583 Y135.973
G0 X276.882 Y134.851
G0 X277.354 Y134.035
G0 X278.616 Y132.378
G0 X279.316 Y133.66
G0 X280.559 Y12.875
G0 X280.372 Y14.321
G0 X279.236 Y13.821
;TYPE:WALL-INNER
G1 F2700 E3.68831
G1 F900 X279.413 Y13.879 E3.69451
G1 X279.806 Y14.014 E3.70833
G1 X280.397 Y14.131 E3.72837
G1 X281.001 Y14.17 E3.7485
G1 X281.605 Y14.131 E3.76863
G1 X282.216 Y14.005 E3.78938
G1 X282.766 Y13.818 E3.8087
G1 X283.307 Y13.552 E3.82875
G1 X283.81 Y13.217 E3.84885
G1 X284.224 Y12.852 E3.86721
G1 X284.285 Y12.795 E3.86999
G1 X284.662 Y12.365 E3.88901
G1 X284.999 Y11.863 E3.90912
G1 X285.086 Y11.681 E3.91583
G1 X285.266 Y11.319 E3.92927
G1 X285.321 Y11.15 E3.93518
G1 X285.46 Y10.749 E3.9493
G1 X285.493 Y10.571 E3.95532
G1 X285.576 Y10.159 E3.9693
G1 X285.615 Y9.555 E3.98943
G1 X285.576 Y8.952 E4.00953
G1 X285.458 Y8.36 E4.02961
G1 X285.263 Y7.788 E4.04971
G1 X285.028 Y7.311 E4.06739
G1 X285.008 Y7.262 E4.06915
G1 X284.662 Y6.744 E4.08987
G1 X284.297 Y6.331 E4.1082
G1 X284.24 Y6.27 E4.11098
G1 X283.81 Y5.893 E4.13
G1 X283.307 Y5.556 E4.15014
G1 X283.137 Y5.474 E4.15641
G1 X282.764 Y5.289 E4.17026
G1 X282.584 Y5.231 E4.17655
G1 X282.213 Y5.102 E4.18962
G1 X282.035 Y5.068 E4.19564
G1 X281.606 Y4.979 E4.21022
G1 X280.999 Y4.94 E4.23045
G1 X280.397 Y4.979 E4.25051
G1 X279.805 Y5.097 E4.27059
G1 X279.233 Y5.292 E4.29069
G1 X278.761 Y5.524 E4.30818
G1 X278.707 Y5.547 E4.31013
G1 X278.189 Y5.893 E4.33085
G1 X277.776 Y6.258 E4.34918
G1 X277.715 Y6.315 E4.35196
G1 X277.338 Y6.745 E4.37098
G1 X277.001 Y7.247 E4.39109
G1 X276.914 Y7.429 E4.3978
G1 X276.734 Y7.791 E4.41125
G1 X276.679 Y7.96 E4.41716
G1 X276.54 Y8.361 E4.43127
G1 X276.507 Y8.539 E4.4373
G1 X276.424 Y8.951 E4.45127
G1 X276.396 Y9.377 E4.46547
G1 X276.386 Y9.583 E4.47233
G1 X276.399 Y9.757 E4.47814
G1 X276.423 Y10.158 E4.4915
G1 X276.542 Y10.75 E4.51158
G1 X276.737 Y11.322 E4.53168
G1 X276.972 Y11.799 E4.54937
G1 X276.992 Y11.848 E4.55113
G1 X277.338 Y12.366 E4.57185
G1 X277.703 Y12.779 E4.59018
G1 X277.76 Y12.84 E4.59296
G1 X278.19 Y13.217 E4.61198
G1 X278.692 Y13.554 E4.63209
G1 X278.874 Y13.641 E4.6388
G1 X279.236 Y13.821 E4.65224
G0 F6000 X279.387 Y13.45
;TYPE:WALL-OUTER
G1 F900 X279.536 Y13.498 E4.65745
G1 X279.909 Y13.627 E4.67058
G1 X280.066 Y13.657 E4.67589
G1 X280.449 Y13.734 E4.68889
G1 X281.001 Y13.769 E4.70728
G1 X281.551 Y13.734 E4.72561
G1 X282.111 Y13.618 E4.74463
G1 X282.613 Y13.448 E4.76226
G1 X283.107 Y13.205 E4.78057
G1 X283.566 Y12.899 E4.79892
G1 X283.956 Y12.555 E4.81622
G1 X283.997 Y12.517 E4.81808
G1 X284.097 Y12.401 E4.82317
G1 X284.344 Y12.121 E4.83559
G1 X284.442 Y11.973 E4.84149
G1 X284.651 Y11.663 E4.85393
G1 X284.728 Y11.503 E4.85983
G1 X284.895 Y11.168 E4.87228
G1 X284.943 Y11.019 E4.87749
G1 X285.072 Y10.646 E4.89062
G1 X285.101 Y10.492 E4.89583
G1 X285.179 Y10.106 E4.90893
G1 X285.214 Y9.555 E4.92729
G1 X285.179 Y9.004 E4.94565
G1 X285.071 Y8.464 E4.96397
G1 X284.893 Y7.942 E4.98231
G1 X284.669 Y7.488 E4.99915
G1 X284.654 Y7.452 E5.00045
G1 X284.344 Y6.989 E5.01898
G1 X284 Y6.599 E5.03628
G1 X283.962 Y6.558 E5.03814
G1 X283.845 Y6.457 E5.04328
G1 X283.566 Y6.211 E5.05565
G1 X283.418 Y6.113 E5.06155
G1 X283.108 Y5.904 E5.07399
G1 X282.964 Y5.835 E5.0793
G1 X282.613 Y5.66 E5.09234
G1 X282.461 Y5.611 E5.09765
G1 X282.11 Y5.49 E5.11
G1 X281.953 Y5.46 E5.11532
G1 X281.552 Y5.376 E5.12895
G1 X280.999 Y5.341 E5.14738
G1 X280.449 Y5.376 E5.16571
G1 X279.909 Y5.484 E5.18402
G1 X279.387 Y5.662 E5.20237
G1 X278.933 Y5.886 E5.2192
G1 X278.897 Y5.901 E5.2205
G1 X278.434 Y6.211 E5.23903
G1 X278.044 Y6.555 E5.25633
G1 X278.003 Y6.593 E5.25819
G1 X277.903 Y6.709 E5.26328
G1 X277.656 Y6.989 E5.2757
G1 X277.558 Y7.137 E5.2816
G1 X277.349 Y7.447 E5.29404
G1 X277.272 Y7.607 E5.29995
G1 X277.105 Y7.942 E5.3124
G1 X277.057 Y8.091 E5.3176
G1 X276.928 Y8.464 E5.33073
G1 X276.899 Y8.618 E5.33594
G1 X276.821 Y9.004 E5.34904
G1 X276.795 Y9.399 E5.36221
G1 X276.787 Y9.578 E5.36816
G1 X276.798 Y9.732 E5.3733
G1 X276.821 Y10.106 E5.38576
G1 X276.929 Y10.646 E5.40408
G1 X277.107 Y11.168 E5.42242
G1 X277.331 Y11.622 E5.43926
G1 X277.346 Y11.658 E5.44056
G1 X277.656 Y12.121 E5.45909
G1 X278 Y12.511 E5.47639
G1 X278.038 Y12.552 E5.47825
G1 X278.154 Y12.652 E5.48334
G1 X278.434 Y12.899 E5.49576
G1 X278.582 Y12.997 E5.50166
G1 X278.892 Y13.206 E5.5141
G1 X279.052 Y13.283 E5.52
G1 X279.387 Y13.45 E5.53245
G0 F6000 X279.221 Y13.857
G1 F2700 E0.53245
G0 F6000 X278.074 Y13.369
G0 X278.961 Y12.212
G0 X29.657 Y11.594
G0 X30.814 Y12.481
G0 X29.239 Y13.586
;TYPE:WALL-INNER
G1 F2700 E5.53245
G1 F900 X29.293 Y13.563 E5.5344
G1 X29.811 Y13.217 E5.55512
G1 X30.224 Y12.852 E5.57346
G1 X30.285 Y12.795 E5.57623
G1 X30.662 Y12.365 E5.59525
G1 X30.999 Y11.863 E5.61536
G1 X31.086 Y11.681 E5.62207
G1 X31.266 Y11.319 E5.63552
G1 X31.321 Y11.15 E5.64143
G1 X31.46 Y10.749 E5.65555
G1 X31.493 Y10.571 E5.66157
G1 X31.576 Y10.159 E5.67555
G1 X31.615 Y9.555 E5.69568
G1 X31.576 Y8.952 E5.71577
G1 X31.458 Y8.36 E5.73585
G1 X31.263 Y7.788 E5.75595
G1 X31.028 Y7.311 E5.77364
G1 X31.008 Y7.262 E5.7754
G1 X30.662 Y6.744 E5.79612
G1 X30.297 Y6.331 E5.81445
G1 X30.24 Y6.27 E5.81723
G1 X29.81 Y5.893 E5.83625
G1 X29.308 Y5.556 E5.85636
G1 X29.12 Y5.466 E5.86329
G1 X28.764 Y5.289 E5.87651
G1 X28.584 Y5.23 E5.88281
G1 X28.194 Y5.096 E5.89653
G1 X27.603 Y4.979 E5.91657
G1 X26.999 Y4.94 E5.9367
G1 X26.395 Y4.979 E5.95683
G1 X25.784 Y5.105 E5.97758
G1 X25.234 Y5.292 E5.9969
G1 X24.713 Y5.548 E6.01621
G1 X24.19 Y5.892 E6.03703
G1 X23.776 Y6.258 E6.05541
G1 X23.715 Y6.315 E6.05818
G1 X23.338 Y6.745 E6.0772
G1 X23.001 Y7.247 E6.09731
G1 X22.914 Y7.429 E6.10402
G1 X22.734 Y7.791 E6.11747
G1 X22.679 Y7.96 E6.12338
G1 X22.54 Y8.361 E6.1375
G1 X22.507 Y8.539 E6.14352
G1 X22.424 Y8.951 E6.15749
G1 X22.396 Y9.377 E6.17169
G1 X22.386 Y9.583 E6.17855
G1 X22.399 Y9.757 E6.18436
G1 X22.423 Y10.158 E6.19772
G1 X22.542 Y10.75 E6.2178
G1 X22.737 Y11.322 E6.2379
G1 X22.972 Y11.799 E6.25559
